X: 1080
T: The Spring Well
R:double jig
N:"collected by J.O'Neill"
B:O'Neill's 1080
Z:Transcribed by henrik.norbeck@mailbox.swipnet.se
M:6/8
L:1/8
K:G
G2E GAB|A2G ABd|ede gdB|BGF TE2D|
G2E GAB|A2G ABd|ede gdB|AGG G2z:|
BGG dGG|ege dcA|BGG dGG|AGA BGE|
BGG dGG|efe def|gfg ecA|BGG G2z:|


